!!!COM: Thomas, Ambroise
!!!CDT: 1811/08/05/-1896/02/12/
!!!CNT: French
!!!title1: Le Caid, Overture
!!!statkey: f#
**kern
*clefG2
*k[f#c#g#]
*f#:
*M2/4
8ccc#
8ccc#
8ccc#
=
8ccc#
8ddd
8ccc#
8bb
=
8aa
8ccc#
8ff#
8aa
=
8gg#
8bb
8aa
8gg#
=
8ff#
8aa
8aa
8aa
=
8aa
8bb
8aa
8ggn
=
8ff#
8aa
8dd
8ff#
=
8ee
8ggn
8ff#
8ee
=
8dd
*-
